X: 1
T:Flanagans Fumbles  "CYMRU"
M:C|
L:1/8
Q:80
C:Terry Tully
S:Hornpipe
K:HP
|: f|
{gAGAG}A{d}A3/4d/4{g}f3/4A/4{gde}d3/4B/4|
{g}G3/4{d}B/4{G}B3/4d/4{gf}g{a}B3/4g/4|
{a}A3/4{d}c/4{G}c3/4d/4{gef}e3/4A/4{g}B3/4c/4|  !
{gde}((3d3/4c/4{g}B/2c/2B/2){G}Af| |
{gAGAG}A{d}A3/4d/4{g}f3/4A/4{gde}d3/4B/4|
{g}G3/4{d}B/4{G}B3/4d/4{gf}g{a}B3/4g/4|  !
{a}A3/4{d}c/4{G}c3/4d/4{gef}e3/4A/4{g}B3/4c/4|
{Gdc}d2{gdc}d:| |:
{g}f3/4g/4|  !
{ag}af3/4a/4{fg}f3/4d/4{c}d3/4f/4|
{g}G3/4{d}B/4{G}B3/4d/4{gf}g{a}B3/4g/4|
{a}A3/4{d}c/4{G}c3/4d/4{gef}e3/4A/4{g}B3/4c/4|  !
{gde}((3d3/4c/4{g}B/2c/2B/2)|1 {G}A3/4g/4{a}f3/4g/4|1 |
{ag}af3/4a/4{fg}f3/4d/4{c}d3/4f/4|
{g}G3/4{d}B/4{G}B3/4d/4{gf}g{a}B3/4g/4|  !
{a}A3/4{d}c/4{G}c3/4d/4{gef}e3/4A/4{g}B3/4c/4|
{Gdc}d2{gdc}d:| |:
{g}A3/4d/4|  !
{gfg}f3/4e/4{g}f3/4d/4{g}A3/4d/4{g}f3/4A/4|
{a}g3/4f/4{a}g3/4d/4{g}B3/4d/4{a}g3/4B/4|
{g}A3/4{d}c/4{G}c3/4d/4{gef}e3/4A/4{g}B3/4c/4|  !
{gde}((3d3/4c/4{g}B/2c/2B/2){G}A{g}A3/4d/4| |
{gfg}f3/4e/4{g}f3/4d/4{g}A3/4d/4{g}f3/4A/4|
{a}g3/4f/4{a}g3/4d/4{g}B3/4d/4{a}g3/4B/4|  !
{g}A3/4{d}c/4{G}c3/4d/4{gef}e3/4A/4{g}B3/4c/4|
{Gdc}d2{gdc}d:| |:
a3/4g/4|  !
{a}f3/4a/4{g}a3/4f/4{g}A3/4d/4{g}f3/4d/4|
{g}G3/4{d}B/4{a}g3/4B/4{g}G3/4B/4{gde}d3/4B/4|
{g}A3/4{d}c/4{g}e3/4f/4{a}g3/4e/4{gcd}c3/4e/4|  !
{gde}((3d3/4c/4{g}B/2c/2B/2)|1 {G}A3/4a/4{g}a3/4g/4|1 |
{a}f3/4a/4{g}a3/4f/4{g}A3/4d/4{g}f3/4d/4|
{g}G3/4{d}B/4{a}g3/4B/4{g}G3/4B/4{gde}d3/4B/4|  !
{g}A3/4{d}c/4{g}e3/4f/4{a}g3/4A/4{g}B3/4c/4|
{Gdc}d2{gdc}d:|
